icons/folder-messages.svg

<svg xmlns="http://www.w3.org/2000/svg" viewBox="0 0 32 32">
  <path d="M13.84376,7.53645l-1.28749-1.0729A2,2,0,0,0,11.27591,6H4A2,2,0,0,0,2,8V24a2,2,0,0,0,2,2H28a2,2,0,0,0,2-2V10a2,2,0,0,0-2-2H15.12412A2,2,0,0,1,13.84376,7.53645Z" style="fill: #ff9800"/>
  <path d="M31,12H15a1,1,0,0,0-1,1V25a1,1,0,0,0,1,1h3v3a1,1,0,0,0,1,1h.69727a1.00024,1.00024,0,0,0,.55468-.168L26,26h5a1,1,0,0,0,1-1V13A1,1,0,0,0,31,12ZM16,18h8v2H16Zm10,6H16V22H26Zm4-8H16V14H30Z" style="fill: #fff9c4;fill-rule: evenodd"/>
</svg>

<svg xmlns="http://www.w3.org/2000/svg" viewBox="0 0 32 32"><path fill="#ff9800" d="m13.844 7.536-1.288-1.072A2 2 0 0 0 11.276 6H4a2 2 0 0 0-2 2v16a2 2 0 0 0 2 2h24a2 2 0 0 0 2-2V10a2 2 0 0 0-2-2H15.124a2 2 0 0 1-1.28-.464Z"/><path fill="#fff9c4" fill-rule="evenodd" d="M31 12H15a1 1 0 0 0-1 1v12a1 1 0 0 0 1 1h3v3a1 1 0 0 0 1 1h.697a1 1 0 0 0 .555-.168L26 26h5a1 1 0 0 0 1-1V13a1 1 0 0 0-1-1Zm-15 6h8v2h-8Zm10 6H16v-2h10Zm4-8H16v-2h14Z"/></svg>
